Origami/24x24/apps/lugaru.svg

<svg width="24" height="24" version="1.1" viewBox="0 0 24 24" xmlns="http://www.w3.org/2000/svg">
 <circle cx="12" cy="19.5" r="3" style="opacity:.2"/>
 <circle cx="12" cy="19" r="3" style="fill:#8f6943"/>
 <rect x="12" y="19.5" width="1" height="2" rx=".25" ry=".25" style="opacity:.2"/>
 <path d="m3.6766365 2.5038338c-0.075156-0.00632-0.1431199-0.0042-0.2041045 0.00683-0.081313 0.014707-0.1497197 0.044401-0.2070343 0.08982-0.4691518 0.371787-0.3228569 1.8486241 0.4892649 4.9205955 0.4553967 1.722605 0.8309564 2.6399347 1.4775607 3.6113647 0.424576 0.637849 0.6297935 0.87982 1.331074 1.572833 0.628056 0.691897 1.4203035 1.659806 1.4365445 2.473967-0.1803495 1.607186-1.9285128 2.948363-1.9999418 4.316454 0 1.656423 1.3430783 2.99922 2.9999563 2.99922 1.0392617 0.104 2.0695887-1.812182 3.0000437-1.999669 1.123897 0.227149 2.031745 2.005181 3.000044 1.999675 1.656878 0 2.999956-1.342797 2.999956-2.999221-0.07143-1.36809-1.819593-2.709268-1.999942-4.316454 0.01624-0.814161 0.808489-1.78207 1.436545-2.473967 0.70128-0.693013 0.906497-0.934984 1.331074-1.572833 0.646604-0.971431 1.022163-1.88876 1.47756-3.611365 0.812122-3.0719714 0.958417-4.5488086 0.489265-4.9205956-0.05731-0.04542-0.125721-0.075114-0.207034-0.08982-0.06098-0.011028-0.128949-0.01315-0.204105-0.00683-0.225469 0.018947-0.515926 0.115926-0.878919 0.2928926-0.719865 0.3509514-1.423787 0.8697653-2.216829 1.6333596-2.233893 2.6101677-2.802009 4.4146186-4.576239 6.9462724-0.182431 0.125597-0.651376 0.127896-0.651376 0.127896s-0.468945-0.0023-0.651377-0.127896c-1.7888351-2.1729717-2.8308998-5.2497339-4.5762382-6.9462721-0.7930415-0.7635942-1.4969645-1.2824082-2.2168293-1.6333644-0.3629921-0.1769667-0.6534498-0.2739451-0.878919-0.2928927z" style="opacity:.2"/>
 <rect x="12" y="19" width="1" height="2" rx=".25" ry=".25" style="fill:#ffffff"/>
 <rect x="11" y="19.5" width="1" height="2" rx=".25" ry=".25" style="opacity:.2"/>
 <rect x="11" y="19" width="1" height="2" rx=".25" ry=".25" style="fill:#ffffff"/>
 <path d="m3.6766365 2.0035218c-0.075156-0.00632-0.1431199-0.0042-0.2041045 0.00683-0.081313 0.014707-0.1497197 0.044401-0.2070343 0.08982-0.4691518 0.371787-0.3228569 1.8486241 0.4892649 4.9205955 0.4553967 1.722605 0.8309564 2.6399345 1.4775607 3.6113657 0.424576 0.637849 0.6297935 0.87982 1.331074 1.572833 0.628056 0.691897 1.4203035 1.659806 1.4365445 2.473967-0.1803495 1.607186-1.9285128 2.948363-1.9999418 4.316454 0 1.656423 1.3430783 2.99922 2.9999563 2.99922 1.0392617 0.104 2.0695887-1.812182 3.0000437-1.999669 1.123897 0.227149 2.031745 2.005181 3.000044 1.999675 1.656878 0 2.999956-1.342797 2.999956-2.999221-0.07143-1.36809-1.819593-2.709268-1.999942-4.316454 0.01624-0.814161 0.808489-1.78207 1.436545-2.473967 0.70128-0.693013 0.906497-0.934984 1.331074-1.572833 0.646604-0.9714315 1.022163-1.888761 1.47756-3.611366 0.812122-3.0719714 0.958417-4.5488086 0.489265-4.9205956-0.05731-0.04542-0.125721-0.075114-0.207034-0.08982-0.06098-0.011028-0.128949-0.01315-0.204105-0.00683-0.225469 0.018947-0.515926 0.115926-0.878919 0.2928926-0.719865 0.3509514-1.423787 0.8697653-2.216829 1.6333596-2.233893 2.6101677-2.802009 4.4146186-4.576239 6.9462734-0.182431 0.125597-0.651376 0.127896-0.651376 0.127896s-0.468945-0.0023-0.651377-0.127896c-1.7888351-2.1729727-2.8308998-5.2497349-4.5762382-6.9462731-0.7930415-0.7635942-1.4969645-1.2824082-2.2168293-1.6333644-0.3629921-0.1769667-0.6534498-0.2739451-0.878919-0.2928927z" style="fill:#b08458"/>
 <path d="m9.5508473 17.5c-0.6338825 0-1.5494575-0.513864-1.5494575-1.147747 0-0.633882-0.06001-1.147746 0.573873-1.147746 1.6293292 0.193869 1.7216202 2.295493 0.9755845 2.295493z" style="opacity:.2"/>
 <path d="m9.5508473 17c-0.6338825 0-1.5494575-0.513864-1.5494575-1.147746 0-0.633883-0.06001-1.147747 0.573873-1.147747 1.6293292 0.193869 1.7216202 2.295493 0.9755845 2.295493z" style="fill:#ffffff"/>
 <path d="m14.44889 17.5c0.633883 0 1.549458-0.513864 1.549458-1.147747 0-0.633882 0.06001-1.147746-0.573873-1.147746-1.62933 0.193869-1.72162 2.295493-0.975585 2.295493z" style="opacity:.2"/>
 <path d="m14.44889 17c0.633883 0 1.549458-0.513864 1.549458-1.147746 0-0.633883 0.06001-1.147747-0.573873-1.147747-1.62933 0.193869-1.72162 2.295493-0.975585 2.295493z" style="fill:#ffffff"/>
 <path d="m12.000001 20c-0.643848-0.06586-1.196738-1.021922-0.932424-1.493087 0.282039-0.371546 0.636024-0.511271 0.932424-0.50681 0.2964-0.0044 0.650384 0.135264 0.932422 0.50681 0.264315 0.471165-0.288575 1.42723-0.932422 1.493087z" style="fill:#bf3667"/>
 <path d="m4.0213532 3.1542969c0.00153 0.1076756-0.011838 0.1472014 0.00293 0.2958984 0.069115 0.6958932 0.2975357 1.8039532 0.6972657 3.3164062 0.4430954 1.676533 0.7590479 2.435816 1.3437499 3.3144535h-1e-3c0.406856 0.611396 0.514278 0.736067 1.2021485 1.416016l0.01953 0.01855 0.01758 0.02051c0.2942255 0.324222 0.655323 0.697799 0.970703 1.136719 0.513895-0.576447 1.154331-1.026023 1.8710937-1.313477-0.5047172-0.815344-0.9172217-1.6492685-1.2539062-2.3330035v-1e-3c-1.3924735-2.834778-1.6739995-3.2775055-2.8124775-4.3740023-0.743082-0.7156865-1.360198-1.1626192-1.961914-1.4560547-0.0830346-0.0404905-0.0292819-0.0169731-0.0957031-0.0410156zm15.957031 0.00489c-0.04464 0.019448-0.04525 0.01153-0.0957 0.036133-0.601716 0.2934355-1.218832 0.7403682-1.961914 1.4560547-1.138478 1.0964969-1.420004 1.5392244-2.8125 4.3740234v1e-3c-0.336842 0.684054-0.749839 1.518274-1.254883 2.333984 0.717115 0.287323 1.357897 0.736907 1.872071 1.313477 0.315485-0.439203 0.676324-0.813316 0.970703-1.137695l0.01758-0.02051 0.01953-0.01855c0.68787-0.679949 0.795292-0.80462 1.202148-1.416016h-1e-3c0.584679-0.8786385 0.900655-1.63792 1.34375-3.314453 0.39973-1.512453 0.62815-2.6205131 0.697266-3.3164063 0.01454-0.1462435 0.0013-0.184399 0.0029-0.2910156z" style="opacity:.3"/>
 <circle cx="9.5" cy="16.5" r=".5" style="fill:#323232"/>
 <circle cx="14.5" cy="16.5" r=".5" style="fill:#323232"/>
 <path d="m3.6757812 2.0039062c-0.0751559-0.00632-0.1421404-0.0051706-0.203125 0.0058594-0.081313 0.014707-0.1497166 0.0444248-0.2070312 0.0898438-0.2067426 0.1638366-0.2865994 0.5583978-0.25 1.1933594 0.0257787-0.3414417 0.1047631-0.5782641 0.25-0.6933594 0.0573146-0.045419 0.1257182-0.0751368 0.2070312-0.0898438 0.0609846-0.01103 0.1279691-0.0121794 0.203125-0.0058594 0.2254692 0.0189477 0.5159142 0.1160021 0.8789063 0.2929688 0.7198648 0.3509562 1.4237554 0.8692183 2.2167969 1.6328125 1.7453384 1.6965382 2.7873367 4.7742939 4.5761716 6.9472655 0.182432 0.125596 0.652344 0.126953 0.652344 0.126953s0.469913-0.001356 0.652344-0.126953c1.77423-2.5316537 2.342279-4.3370978 4.576172-6.9472655 0.793042-0.7635943 1.496931-1.2818611 2.216796-1.6328125 0.362994-0.1769666 0.653438-0.2740218 0.878907-0.2929688 0.075156-0.00632 0.142145-0.0051686 0.203125 0.0058594 0.081313 0.014706 0.149721 0.0444238 0.207031 0.0898438 0.145237 0.1150953 0.224221 0.3519177 0.25 0.6933594 0.036599-0.6349616-0.043257-1.0295228-0.25-1.1933594-0.05731-0.04542-0.125718-0.0751378-0.207031-0.0898438-0.06098-0.011028-0.127969-0.0121794-0.203125-0.0058594-0.225469 0.018947-0.515913 0.1160022-0.878907 0.2929688-0.719865 0.3509514-1.423754 0.8692182-2.216796 1.6328125-2.233893 2.6101677-2.801942 4.4156108-4.576172 6.9472655-0.182431 0.125597-0.652344 0.126953-0.652344 0.126953s-0.469912-0.001357-0.652344-0.126953c-1.7888349-2.1729726-2.8308332-5.2507273-4.5761716-6.9472655-0.7930415-0.7635942-1.4969321-1.2818563-2.2167969-1.6328125-0.3629921-0.1769667-0.6534371-0.2740212-0.8789063-0.2929688zm4.28125 12.859375c-0.2859805 1.52509-1.8883847 2.818015-1.9570312 4.132813 0 0.113245 0.0209766 0.220093 0.0332031 0.330078 0.1961204-1.309851 1.7939069-2.605774 1.9667969-4.146484-0.0020562-0.103077-0.0179437-0.209273-0.0429688-0.316407zm8.0859378 0c-0.025025 0.107134-0.040913 0.21333-0.042969 0.316407 0.17289 1.54071 1.770676 2.836634 1.966797 4.146484 0.012226-0.109985 0.033203-0.216833 0.033203-0.330078-0.068647-1.314797-1.671051-2.607723-1.957031-4.132813z" style="fill:#ffffff;opacity:.2"/>
</svg>

<svg xmlns="http://www.w3.org/2000/svg" width="24" height="24" version="1.1" viewBox="0 0 24 24">
 <circle style="opacity:0.2" cx="12" cy="19.5" r="3"/>
 <circle style="fill:#8f6943" cx="12" cy="19" r="3"/>
 <rect style="opacity:0.2" width="1" height="2" x="12" y="19.5" rx=".25" ry=".25"/>
 <path style="opacity:0.2" d="m 3.6766365,2.5038338 c -0.075156,-0.00632 -0.1431199,-0.0042 -0.2041045,0.00683 -0.081313,0.014707 -0.1497197,0.044401 -0.2070343,0.08982 -0.4691518,0.371787 -0.3228569,1.8486241 0.4892649,4.9205955 0.4553967,1.722605 0.8309564,2.6399347 1.4775607,3.6113647 0.424576,0.637849 0.6297935,0.87982 1.331074,1.572833 0.628056,0.691897 1.4203035,1.659806 1.4365445,2.473967 C 7.8195923,16.78643 6.071429,18.127607 6,19.495698 c 0,1.656423 1.3430783,2.99922 2.9999563,2.99922 1.0392617,0.104 2.0695887,-1.812182 3.0000437,-1.999669 1.123897,0.227149 2.031745,2.005181 3.000044,1.999675 1.656878,0 2.999956,-1.342797 2.999956,-2.999221 -0.07143,-1.36809 -1.819593,-2.709268 -1.999942,-4.316454 0.01624,-0.814161 0.808489,-1.78207 1.436545,-2.473967 0.70128,-0.693013 0.906497,-0.934984 1.331074,-1.572833 0.646604,-0.971431 1.022163,-1.88876 1.47756,-3.611365 0.812122,-3.0719714 0.958417,-4.5488086 0.489265,-4.9205956 -0.05731,-0.04542 -0.125721,-0.075114 -0.207034,-0.08982 -0.06098,-0.011028 -0.128949,-0.01315 -0.204105,-0.00683 -0.225469,0.018947 -0.515926,0.115926 -0.878919,0.2928926 C 18.724579,3.1476824 18.020657,3.6664963 17.227615,4.4300906 14.993722,7.0402583 14.425606,8.8447092 12.651376,11.376363 12.468945,11.50196 12,11.504259 12,11.504259 c 0,0 -0.468945,-0.0023 -0.651377,-0.127896 C 9.5597879,9.2033913 8.5177232,6.1266291 6.7723848,4.4300909 5.9793433,3.6664967 5.2754203,3.1476827 4.5555555,2.7967265 4.1925634,2.6197598 3.9021057,2.5227814 3.6766365,2.5038338 Z"/>
 <rect style="fill:#ffffff" width="1" height="2" x="12" y="19" rx=".25" ry=".25"/>
 <rect style="opacity:0.2" width="1" height="2" x="11" y="19.5" rx=".25" ry=".25"/>
 <rect style="fill:#ffffff" width="1" height="2" x="11" y="19" rx=".25" ry=".25"/>
 <path style="fill:#b08458" d="m 3.6766365,2.0035218 c -0.075156,-0.00632 -0.1431199,-0.0042 -0.2041045,0.00683 -0.081313,0.014707 -0.1497197,0.044401 -0.2070343,0.08982 -0.4691518,0.371787 -0.3228569,1.8486241 0.4892649,4.9205955 0.4553967,1.722605 0.8309564,2.6399345 1.4775607,3.6113657 0.424576,0.637849 0.6297935,0.87982 1.331074,1.572833 0.628056,0.691897 1.4203035,1.659806 1.4365445,2.473967 C 7.8195923,16.286119 6.071429,17.627296 6,18.995387 c 0,1.656423 1.3430783,2.99922 2.9999563,2.99922 1.0392617,0.104 2.0695887,-1.812182 3.0000437,-1.999669 1.123897,0.227149 2.031745,2.005181 3.000044,1.999675 1.656878,0 2.999956,-1.342797 2.999956,-2.999221 -0.07143,-1.36809 -1.819593,-2.709268 -1.999942,-4.316454 0.01624,-0.814161 0.808489,-1.78207 1.436545,-2.473967 0.70128,-0.693013 0.906497,-0.934984 1.331074,-1.572833 0.646604,-0.9714315 1.022163,-1.888761 1.47756,-3.611366 0.812122,-3.0719714 0.958417,-4.5488086 0.489265,-4.9205956 -0.05731,-0.04542 -0.125721,-0.075114 -0.207034,-0.08982 -0.06098,-0.011028 -0.128949,-0.01315 -0.204105,-0.00683 -0.225469,0.018947 -0.515926,0.115926 -0.878919,0.2928926 C 18.724579,2.6473704 18.020657,3.1661843 17.227615,3.9297786 14.993722,6.5399463 14.425606,8.3443972 12.651376,10.876052 12.468945,11.001649 12,11.003948 12,11.003948 c 0,0 -0.468945,-0.0023 -0.651377,-0.127896 C 9.5597879,8.7030793 8.5177232,5.6263171 6.7723848,3.9297789 5.9793433,3.1661847 5.2754203,2.6473707 4.5555555,2.2964145 4.1925634,2.1194478 3.9021057,2.0224694 3.6766365,2.0035218 Z"/>
 <path style="opacity:0.2" d="m 9.5508473,17.5 c -0.6338825,0 -1.5494575,-0.513864 -1.5494575,-1.147747 0,-0.633882 -0.06001,-1.147746 0.573873,-1.147746 C 10.204592,15.398376 10.296883,17.5 9.5508473,17.5 Z"/>
 <path style="fill:#ffffff" d="m 9.5508473,17 c -0.6338825,0 -1.5494575,-0.513864 -1.5494575,-1.147746 0,-0.633883 -0.06001,-1.147747 0.573873,-1.147747 C 10.204592,14.898376 10.296883,17 9.5508473,17 Z"/>
 <path style="opacity:0.2" d="m 14.44889,17.5 c 0.633883,0 1.549458,-0.513864 1.549458,-1.147747 0,-0.633882 0.06001,-1.147746 -0.573873,-1.147746 C 13.795145,15.398376 13.702855,17.5 14.44889,17.5 Z"/>
 <path style="fill:#ffffff" d="m 14.44889,17 c 0.633883,0 1.549458,-0.513864 1.549458,-1.147746 0,-0.633883 0.06001,-1.147747 -0.573873,-1.147747 C 13.795145,14.898376 13.702855,17 14.44889,17 Z"/>
 <path style="fill:#bf3667" d="m 12.000001,20 c -0.643848,-0.06586 -1.196738,-1.021922 -0.932424,-1.493087 0.282039,-0.371546 0.636024,-0.511271 0.932424,-0.50681 0.2964,-0.0044 0.650384,0.135264 0.932422,0.50681 0.264315,0.471165 -0.288575,1.42723 -0.932422,1.493087 z"/>
 <path style="opacity:0.3" d="m 4.0213532,3.1542969 c 0.00153,0.1076756 -0.011838,0.1472014 0.00293,0.2958984 0.069115,0.6958932 0.2975357,1.8039532 0.6972657,3.3164062 0.4430954,1.676533 0.7590479,2.435816 1.3437499,3.3144535 h -10e-4 c 0.406856,0.611396 0.514278,0.736067 1.2021485,1.416016 l 0.01953,0.01855 0.01758,0.02051 c 0.2942255,0.324222 0.655323,0.697799 0.970703,1.136719 0.513895,-0.576447 1.154331,-1.026023 1.8710937,-1.313477 C 9.6406368,10.544029 9.2281323,9.7101045 8.8914478,9.0263695 v -10e-4 C 7.4989743,6.1905915 7.2174483,5.747864 6.0789703,4.6513672 5.3358883,3.9356807 4.7187723,3.488748 4.1170563,3.1953125 4.0340217,3.154822 4.0877744,3.1783394 4.0213532,3.1542969 Z m 15.9570308,0.00489 c -0.04464,0.019448 -0.04525,0.01153 -0.0957,0.036133 -0.601716,0.2934355 -1.218832,0.7403682 -1.961914,1.4560547 -1.138478,1.0964969 -1.420004,1.5392244 -2.8125,4.3740234 v 0.001 c -0.336842,0.684054 -0.749839,1.518274 -1.254883,2.333984 0.717115,0.287323 1.357897,0.736907 1.872071,1.313477 0.315485,-0.439203 0.676324,-0.813316 0.970703,-1.137695 l 0.01758,-0.02051 0.01953,-0.01855 c 0.68787,-0.679949 0.795292,-0.80462 1.202148,-1.416016 h -0.001 c 0.584679,-0.8786385 0.900655,-1.63792 1.34375,-3.314453 0.39973,-1.512453 0.62815,-2.6205131 0.697266,-3.3164063 0.01454,-0.1462435 0.0013,-0.184399 0.0029,-0.2910156 z"/>
 <circle style="fill:#323232" cx="9.5" cy="16.5" r=".5"/>
 <circle style="fill:#323232" cx="14.5" cy="16.5" r=".5"/>
 <path style="opacity:0.2;fill:#ffffff" d="M 3.6757812 2.0039062 C 3.6006253 1.9975862 3.5336408 1.9987356 3.4726562 2.0097656 C 3.3913432 2.0244726 3.3229396 2.0541904 3.265625 2.0996094 C 3.0588824 2.263446 2.9790256 2.6580072 3.015625 3.2929688 C 3.0414037 2.9515271 3.1203881 2.7147047 3.265625 2.5996094 C 3.3229396 2.5541904 3.3913432 2.5244726 3.4726562 2.5097656 C 3.5336408 2.4987356 3.6006253 2.4975862 3.6757812 2.5039062 C 3.9012504 2.5228539 4.1916954 2.6199083 4.5546875 2.796875 C 5.2745523 3.1478312 5.9784429 3.6660933 6.7714844 4.4296875 C 8.5168228 6.1262257 9.5588211 9.2039814 11.347656 11.376953 C 11.530088 11.502549 12 11.503906 12 11.503906 C 12 11.503906 12.469913 11.50255 12.652344 11.376953 C 14.426574 8.8452993 14.994623 7.0398552 17.228516 4.4296875 C 18.021558 3.6660932 18.725447 3.1478264 19.445312 2.796875 C 19.808306 2.6199084 20.09875 2.5228532 20.324219 2.5039062 C 20.399375 2.4975862 20.466364 2.4987376 20.527344 2.5097656 C 20.608657 2.5244716 20.677065 2.5541894 20.734375 2.5996094 C 20.879612 2.7147047 20.958596 2.9515271 20.984375 3.2929688 C 21.020974 2.6580072 20.941118 2.263446 20.734375 2.0996094 C 20.677065 2.0541894 20.608657 2.0244716 20.527344 2.0097656 C 20.466364 1.9987376 20.399375 1.9975862 20.324219 2.0039062 C 20.09875 2.0228532 19.808306 2.1199084 19.445312 2.296875 C 18.725447 2.6478264 18.021558 3.1660932 17.228516 3.9296875 C 14.994623 6.5398552 14.426574 8.3452983 12.652344 10.876953 C 12.469913 11.00255 12 11.003906 12 11.003906 C 12 11.003906 11.530088 11.002549 11.347656 10.876953 C 9.5588211 8.7039804 8.5168228 5.6262257 6.7714844 3.9296875 C 5.9784429 3.1660933 5.2745523 2.6478312 4.5546875 2.296875 C 4.1916954 2.1199083 3.9012504 2.0228538 3.6757812 2.0039062 z M 7.9570312 14.863281 C 7.6710507 16.388371 6.0686465 17.681296 6 18.996094 C 6 19.109339 6.0209766 19.216187 6.0332031 19.326172 C 6.2293235 18.016321 7.82711 16.720398 8 15.179688 C 7.9979438 15.076611 7.9820563 14.970415 7.9570312 14.863281 z M 16.042969 14.863281 C 16.017944 14.970415 16.002056 15.076611 16 15.179688 C 16.17289 16.720398 17.770676 18.016322 17.966797 19.326172 C 17.979023 19.216187 18 19.109339 18 18.996094 C 17.931353 17.681297 16.328949 16.388371 16.042969 14.863281 z"/>
</svg>
